X:45
T:Trip to Hardin's. ThoH.045
Q:1/2=90
M:C|
L:1/8
B:Thompson's Compleat Collection of 120 Favourite Hornpipes.
Z:Village Music Project, Simon Wilson 2016
O:England.
K:A
A4c4|ecBA dBAG|A2c2-c2BA|dfdB GBGE|A4c4|ecBA dBAG|AagfTe2dc|dBAGA4:|
|:c4e4|dBAG cAGF|EFGA Bc^de|fgeB eBc^d|e4g4|bgfe afe^d|e2g2afe^d|e6cd|
e4T=g4|fdAF DFAd|f4Ta4|geBG EGBe|e2b2gefg|aedcTB2AG|AagfTe2dc|dBAGA4:|

